ix/keyboard_linear.svg

<svg viewBox="0 0 24 24" fill="none" xmlns="http://www.w3.org/2000/svg" height="1em" width="1em">
  <path d="M7.5 4h9c.62 0 1.17.02 1.66.09 2.63.29 3.34 1.53 3.34 4.91v6c0 3.38-.71 4.62-3.34 4.91-.49.07-1.04.09-1.66.09h-9c-.62 0-1.17-.02-1.66-.09C3.21 19.62 2.5 18.38 2.5 15V9c0-3.38.71-4.62 3.34-4.91C6.33 4.02 6.88 4 7.5 4Zm6 6H17M7 15.5h10" stroke="#292D32" stroke-width="1.5" stroke-linecap="round" stroke-linejoin="round"/>
  <path d="M10.095 10h.009m-3.009 0h.009" stroke="#292D32" stroke-width="2" stroke-linecap="round" stroke-linejoin="round"/>
</svg>

<svg viewBox="0 0 24 24" fill="none" xmlns="http://www.w3.org/2000/svg" height="1em" width="1em">
  <path d="M7.5 4H16.5C17.12 4 17.67 4.02 18.16 4.09C20.79 4.38 21.5 5.62 21.5 9V15C21.5 18.38 20.79 19.62 18.16 19.91C17.67 19.98 17.12 20 16.5 20H7.5C6.88 20 6.33 19.98 5.84 19.91C3.21 19.62 2.5 18.38 2.5 15V9C2.5 5.62 3.21 4.38 5.84 4.09C6.33 4.02 6.88 4 7.5 4Z" stroke="#292D32" stroke-width="1.5" stroke-linecap="round" stroke-linejoin="round"/>
  <path d="M13.5 10H17" stroke="#292D32" stroke-width="1.5" stroke-linecap="round" stroke-linejoin="round"/>
  <path d="M7 15.5H7.02H17" stroke="#292D32" stroke-width="1.5" stroke-linecap="round" stroke-linejoin="round"/>
  <path d="M10.0946 10H10.1036" stroke="#292D32" stroke-width="2" stroke-linecap="round" stroke-linejoin="round"/>
  <path d="M7.0946 10H7.10359" stroke="#292D32" stroke-width="2" stroke-linecap="round" stroke-linejoin="round"/>
</svg>
